X: 10318
T: Domh'ull Donn Bhohuntainn
R: strathspey
M: 4/4
K: Gminor
d||e>d c<G B2 c2|e>e b2 g>e g2|f>ed>B c>B B2|c<e g>f ed c2:|
c>cc>B c2 c2|B>cd>c B>A G2|e>ef>f g2 g2|e<g f>e dgfe|
d>B c<A B2 c2|e>e b2 g>e g2|f>ed>B c>B B2|c<e g>fe>d c2||

